X:340
T:Reel 340
M:4/4
K:Amaj
L:1/8
E|A2ED CDEC|B,CDE FB,B,G|A2ED CDEC|B,FED CA,A,G|A2ED CDEC|B,CDE FB,B,G|AGAE FAEC|DFED CA,A,|B,|CA,E,A, CDEC|B,CDE FB,B,D|CA,E,A, CDEC|DFED CA,A,B,|CA,E,A, CDEC|B,CDE FEFG|AGAE FAEC|DFED CA,A,|
